X: 6
T: Mattinata   [C]
%T: This Is Our Day
%T: You're Breaking My Heart
R: waltz
C: Ruggiero Leoncavallo 1904
F: https://www.scribd.com/document/374973992/IMSLP482691-PMLP116350-mattinata-pdf
%date: 1904
Z: 1999 John Chambers <jc@trillian.mit.edu>
S: http://ks.imslp.net/files/imglnks/usimg/7/71/IMSLP482691-PMLP116350-mattinata.pdf
M: 6/8
L: 1/8
K: C
%
G "A"| "C"cde c{dc}BA | "F"cD2 "Dm"z2E | "Dm"FAc "G7"B{cB}A> B, | "C"G3 z2E |
w: L'au-ro-ra di bian-co ve-sti-ta Gi\`a lu-scio dis-chiu-de~al gran sol, Di
       "A7"EFG E^C> A, | "Dm"ED2 z2C | "Em"B,EG "B7"^F^DB, | "Em"B3- "G7"B2 ||
w:gi\`a con le ro-see sue di-ta Ca-rez-za de' fio-ri lo stuol*
%
G "B"| "C"cde c{dc}BA | "F"cD2 "Dm"z2E | "Dm"FAc "G7"B{cB}A> B, | "C"G3 z2G |
w: Com-mos-so da~un fre-mi-to~ar-ca-no In-torno il cre-a-to gi\`a par E
       "C7/G"_BAB GG^F/G/ | "G"e3 d2B | GDB, "D7"EC^F | "G"G3- "G7"G3 |]
w: tu non ti de-sti, ed in-va-no Mi sto qui do-lente a can-tar.*
%
"C"|: "C"GEG "Am"A3 | "C"G{AG}EG "Am"AA2 | "B7"A^FA "Em"B2B | "D7"ABc "G7"d3 | "E7"fe> B "Am"B2c |
w: Met-ti~an-che tu la ve-ste bian-ca e schiu-di l'u-scio al tuo can-tor! O-ve non se-i
      "D7"dc> ^F "C"A2G | [1 "Fm"c_Ac "C"GEC | "G7"FF> B, "C"C3 :|[2 "Fm"c_Ac "C"GEc | "G7"ff> B "C"c3 |]
w: la lu-ce man-ca, O-ve tu se-*i na-sce l'a-mor! | O-ve tu se-*i na-sce l'a-mor!

%%sep 1 0 500
%%sep 1 0 500


